icons/op-square-24.svg

<svg width="24" height="24" viewBox="0 0 24 24" fill="none" xmlns="http://www.w3.org/2000/svg">
<path d="M17.6562 14.3904L15.2812 15.9841V18.3745L17.6562 20L20 18.3745V15.9841L17.6562 14.3904ZM17.6562 17.5139L15.9375 16.3347L17.6562 15.1554L19.375 16.3347L17.6562 17.5139ZM16.2812 4L13.4375 5.94422V8.87649L16.2812 10.8207L19.1562 8.87649V5.94422L16.2812 4ZM16.2812 7.79283L14.1875 6.39044L16.2812 4.95618L18.375 6.39044L16.2812 7.79283ZM8.9375 8.27092L4 11.6175V16.6534L8.9375 20L13.8438 16.6534V11.6175L8.9375 8.27092ZM8.9375 14.7729L5.34375 12.3506L8.9375 9.89641L12.5312 12.3506L8.9375 14.7729Z" fill="black"/>
</svg>

<svg xmlns="http://www.w3.org/2000/svg" width="24" height="24" viewBox="0 0 24 24"><path d="m17.656 14.39-2.375 1.594v2.391L17.656 20 20 18.375v-2.391l-2.344-1.594Zm0 3.124-1.718-1.179 1.718-1.18 1.719 1.18-1.719 1.179ZM16.281 4l-2.843 1.944v2.932l2.843 1.945 2.875-1.945V5.944L16.281 4Zm0 3.793L14.188 6.39l2.093-1.434 2.094 1.434-2.094 1.403Zm-7.343.478L4 11.617v5.036L8.938 20l4.906-3.347v-5.036L8.938 8.271Zm0 6.502-3.594-2.422 3.594-2.455 3.593 2.455-3.593 2.422Z"/></svg>
